resources/motor_order/y6.svg

<?xml version="1.0" encoding="UTF-8" standalone="no"?>
<!-- Public domain (CC-BY-SA if you or your laws insist), generated by Jonathan Hudson's svg_model_motors.rb -->

<svg
   width="200pt"
   height="200pt"
   viewBox="0 0 200 200"
   version="1.1"
   id="svg76"
   sodipodi:docname="y6.svg"
   inkscape:version="1.1 (c68e22c387, 2021-05-23)"
   xmlns:inkscape="http://www.inkscape.org/namespaces/inkscape"
   xmlns:sodipodi="http://sodipodi.sourceforge.net/DTD/sodipodi-0.dtd"
   xmlns:xlink="http://www.w3.org/1999/xlink"
   xmlns="http://www.w3.org/2000/svg"
   xmlns:svg="http://www.w3.org/2000/svg">
  <sodipodi:namedview
     id="namedview78"
     pagecolor="#505050"
     bordercolor="#eeeeee"
     borderopacity="1"
     inkscape:pageshadow="0"
     inkscape:pageopacity="0"
     inkscape:pagecheckerboard="0"
     inkscape:document-units="pt"
     showgrid="false"
     inkscape:zoom="2.2539029"
     inkscape:cx="124.67263"
     inkscape:cy="122.23242"
     inkscape:window-width="1920"
     inkscape:window-height="1009"
     inkscape:window-x="-8"
     inkscape:window-y="-8"
     inkscape:window-maximized="1"
     inkscape:current-layer="svg76" />
  <defs
     id="defs25">
    <g
       id="g23">
      <symbol
         overflow="visible"
         id="glyph0-0">
        <path
           style="stroke:none;"
           d=""
           id="path2" />
      </symbol>
      <symbol
         overflow="visible"
         id="glyph0-1">
        <path
           style="stroke:none;"
           d="M 9.257812 -6.929688 L 9.257812 -15.804688 L 2.980469 -6.929688 Z M 9.296875 0 L 9.296875 -4.785156 L 0.710938 -4.785156 L 0.710938 -7.191406 L 9.679688 -19.632812 L 11.757812 -19.632812 L 11.757812 -6.929688 L 14.640625 -6.929688 L 14.640625 -4.785156 L 11.757812 -4.785156 L 11.757812 0 Z M 9.296875 0 "
           id="path5" />
      </symbol>
      <symbol
         overflow="visible"
         id="glyph0-2">
        <path
           style="stroke:none;"
           d="M 12.761719 -17.957031 C 13.625 -16.824219 14.054688 -15.65625 14.054688 -14.453125 L 11.621094 -14.453125 C 11.476562 -15.226562 11.242188 -15.832031 10.921875 -16.269531 C 10.332031 -17.089844 9.433594 -17.5 8.230469 -17.5 C 6.855469 -17.5 5.761719 -16.863281 4.949219 -15.59375 C 4.136719 -14.320312 3.6875 -12.5 3.59375 -10.132812 C 4.160156 -10.960938 4.871094 -11.578125 5.726562 -11.992188 C 6.511719 -12.355469 7.386719 -12.539062 8.351562 -12.539062 C 9.992188 -12.539062 11.425781 -12.011719 12.648438 -10.964844 C 13.867188 -9.917969 14.476562 -8.351562 14.476562 -6.273438 C 14.476562 -4.496094 13.898438 -2.921875 12.742188 -1.550781 C 11.585938 -0.179688 9.933594 0.507812 7.792969 0.507812 C 5.960938 0.507812 4.378906 -0.1875 3.046875 -1.578125 C 1.71875 -2.96875 1.054688 -5.308594 1.054688 -8.601562 C 1.054688 -11.035156 1.347656 -13.097656 1.941406 -14.792969 C 3.082031 -18.039062 5.164062 -19.660156 8.1875 -19.660156 C 10.375 -19.660156 11.902344 -19.09375 12.761719 -17.957031 Z M 10.917969 -2.988281 C 11.558594 -3.859375 11.882812 -4.886719 11.882812 -6.070312 C 11.882812 -7.074219 11.59375 -8.027344 11.019531 -8.933594 C 10.445312 -9.839844 9.402344 -10.296875 7.890625 -10.296875 C 6.832031 -10.296875 5.902344 -9.945312 5.105469 -9.242188 C 4.308594 -8.539062 3.910156 -7.484375 3.910156 -6.070312 C 3.910156 -4.832031 4.273438 -3.789062 4.996094 -2.945312 C 5.722656 -2.101562 6.726562 -1.679688 8.011719 -1.679688 C 9.304688 -1.679688 10.273438 -2.117188 10.917969 -2.988281 Z M 10.917969 -2.988281 "
           id="path8" />
      </symbol>
      <symbol
         overflow="visible"
         id="glyph0-3">
        <path
           style="stroke:none;"
           d="M 3.460938 -4.992188 C 3.625 -3.585938 4.273438 -2.617188 5.414062 -2.078125 C 5.996094 -1.804688 6.671875 -1.667969 7.4375 -1.667969 C 8.894531 -1.667969 9.976562 -2.132812 10.679688 -3.0625 C 11.378906 -3.992188 11.730469 -5.023438 11.730469 -6.152344 C 11.730469 -7.519531 11.3125 -8.578125 10.480469 -9.324219 C 9.644531 -10.070312 8.644531 -10.445312 7.476562 -10.445312 C 6.628906 -10.445312 5.902344 -10.28125 5.296875 -9.953125 C 4.691406 -9.625 4.175781 -9.167969 3.746094 -8.585938 L 1.613281 -8.710938 L 3.101562 -19.25 L 13.273438 -19.25 L 13.273438 -16.871094 L 4.949219 -16.871094 L 4.117188 -11.429688 C 4.570312 -11.777344 5.003906 -12.035156 5.414062 -12.210938 C 6.144531 -12.511719 6.984375 -12.660156 7.945312 -12.660156 C 9.738281 -12.660156 11.261719 -12.082031 12.507812 -10.921875 C 13.757812 -9.765625 14.382812 -8.296875 14.382812 -6.523438 C 14.382812 -4.671875 13.8125 -3.039062 12.667969 -1.625 C 11.523438 -0.214844 9.699219 0.492188 7.191406 0.492188 C 5.597656 0.492188 4.1875 0.0429688 2.960938 -0.855469 C 1.734375 -1.753906 1.046875 -3.132812 0.902344 -4.992188 Z M 3.460938 -4.992188 "
           id="path11" />
      </symbol>
      <symbol
         overflow="visible"
         id="glyph0-4">
        <path
           style="stroke:none;"
           d="M 1.921875 -4.402344 C 2.527344 -5.652344 3.710938 -6.785156 5.46875 -7.804688 L 8.09375 -9.324219 C 9.269531 -10.007812 10.09375 -10.589844 10.570312 -11.074219 C 11.316406 -11.832031 11.6875 -12.695312 11.6875 -13.671875 C 11.6875 -14.8125 11.347656 -15.714844 10.664062 -16.386719 C 9.980469 -17.054688 9.070312 -17.390625 7.929688 -17.390625 C 6.242188 -17.390625 5.078125 -16.753906 4.429688 -15.476562 C 4.082031 -14.792969 3.890625 -13.84375 3.855469 -12.632812 L 1.351562 -12.632812 C 1.378906 -14.335938 1.695312 -15.726562 2.296875 -16.804688 C 3.363281 -18.699219 5.246094 -19.648438 7.945312 -19.648438 C 10.1875 -19.648438 11.824219 -19.039062 12.859375 -17.828125 C 13.894531 -16.617188 14.410156 -15.265625 14.410156 -13.78125 C 14.410156 -12.214844 13.859375 -10.875 12.757812 -9.761719 C 12.117188 -9.113281 10.972656 -8.332031 9.324219 -7.410156 L 7.453125 -6.371094 C 6.558594 -5.878906 5.855469 -5.410156 5.34375 -4.960938 C 4.433594 -4.167969 3.859375 -3.289062 3.625 -2.324219 L 14.3125 -2.324219 L 14.3125 0 L 0.875 0 C 0.964844 -1.6875 1.316406 -3.152344 1.921875 -4.402344 Z M 1.921875 -4.402344 "
           id="path14" />
      </symbol>
      <symbol
         overflow="visible"
         id="glyph0-5">
        <path
           style="stroke:none;"
           d="M 2.234375 -1.375 C 1.191406 -2.644531 0.671875 -4.191406 0.671875 -6.015625 L 3.242188 -6.015625 C 3.351562 -4.75 3.585938 -3.828125 3.953125 -3.253906 C 4.589844 -2.222656 5.742188 -1.710938 7.410156 -1.710938 C 8.703125 -1.710938 9.742188 -2.054688 10.527344 -2.75 C 11.3125 -3.441406 11.703125 -4.335938 11.703125 -5.429688 C 11.703125 -6.777344 11.289062 -7.71875 10.464844 -8.257812 C 9.640625 -8.796875 8.496094 -9.0625 7.027344 -9.0625 C 6.863281 -9.0625 6.695312 -9.0625 6.527344 -9.058594 C 6.359375 -9.054688 6.1875 -9.046875 6.015625 -9.039062 L 6.015625 -11.210938 C 6.269531 -11.183594 6.484375 -11.164062 6.65625 -11.15625 C 6.832031 -11.148438 7.019531 -11.140625 7.21875 -11.140625 C 8.140625 -11.140625 8.894531 -11.289062 9.488281 -11.578125 C 10.527344 -12.089844 11.046875 -13 11.046875 -14.3125 C 11.046875 -15.289062 10.699219 -16.042969 10.007812 -16.570312 C 9.316406 -17.097656 8.507812 -17.363281 7.585938 -17.363281 C 5.945312 -17.363281 4.8125 -16.816406 4.183594 -15.722656 C 3.835938 -15.121094 3.640625 -14.265625 3.59375 -13.152344 L 1.164062 -13.152344 C 1.164062 -14.609375 1.453125 -15.851562 2.039062 -16.871094 C 3.039062 -18.695312 4.804688 -19.605469 7.328125 -19.605469 C 9.324219 -19.605469 10.867188 -19.160156 11.960938 -18.273438 C 13.054688 -17.382812 13.601562 -16.097656 13.601562 -14.410156 C 13.601562 -13.207031 13.28125 -12.230469 12.632812 -11.484375 C 12.230469 -11.019531 11.710938 -10.65625 11.074219 -10.390625 C 12.105469 -10.109375 12.910156 -9.5625 13.488281 -8.757812 C 14.066406 -7.949219 14.355469 -6.964844 14.355469 -5.796875 C 14.355469 -3.929688 13.742188 -2.40625 12.507812 -1.230469 C 11.277344 -0.0546875 9.535156 0.53125 7.273438 0.53125 C 4.957031 0.53125 3.277344 -0.101562 2.234375 -1.375 Z M 2.234375 -1.375 "
           id="path17" />
      </symbol>
      <symbol
         overflow="visible"
         id="glyph0-6">
        <path
           style="stroke:none;"
           d="M 2.679688 -13.863281 L 2.679688 -15.75 C 4.457031 -15.921875 5.695312 -16.210938 6.398438 -16.617188 C 7.101562 -17.023438 7.625 -17.984375 7.96875 -19.496094 L 9.914062 -19.496094 L 9.914062 0 L 7.289062 0 L 7.289062 -13.863281 Z M 2.679688 -13.863281 "
           id="path20" />
      </symbol>
    </g>
  </defs>
  <path
     style="fill:none;stroke:#257395;stroke-width:3;stroke-linecap:butt;stroke-linejoin:miter;stroke-miterlimit:10;stroke-opacity:1"
     d="m 128,170 c 0,15.46484 -12.53516,28 -28,28 -15.464844,0 -28,-12.53516 -28,-28 0,-15.46484 12.535156,-28 28,-28 15.46484,0 28,12.53516 28,28 m -47.800781,19.80078 v 16.80078 m 0,-16.80078 L 97,187.78516"
     id="path27" />
  <g
     style="fill:#000000;fill-opacity:1"
     id="g31">
    <use
       xlink:href="#glyph0-1"
       x="93"
       y="191"
       id="use29"
       width="100%"
       height="100%" />
  </g>
  <path
     style="fill:none;stroke:#257395;stroke-width:3;stroke-linecap:butt;stroke-linejoin:miter;stroke-miterlimit:10;stroke-opacity:1"
     d="M 58,30 C 58,45.464844 45.464844,58 30,58 14.535156,58 2,45.464844 2,30 2,14.535156 14.535156,2 30,2 45.464844,2 58,14.535156 58,30 M 49.800781,10.199219 47.785156,27 m 2.015625,-16.800781 h 16.800781"
     id="path33" />
  <g
     style="fill:#000000;fill-opacity:1"
     id="g37">
    <use
       xlink:href="#glyph0-2"
       x="23"
       y="27"
       id="use35"
       width="100%"
       height="100%" />
  </g>
  <path
     style="fill:none;stroke:#257395;stroke-width:3;stroke-linecap:butt;stroke-linejoin:miter;stroke-miterlimit:10;stroke-opacity:1"
     d="m 198,30 c 0,15.464844 -12.53516,28 -28,28 -15.46484,0 -28,-12.535156 -28,-28 0,-15.464844 12.53516,-28 28,-28 15.46484,0 28,12.535156 28,28 M 150.19922,10.199219 V -6.601562 m 0,16.800781 L 167,12.214844"
     id="path39" />
  <g
     style="fill:#000000;fill-opacity:1"
     id="g43">
    <use
       xlink:href="#glyph0-3"
       x="163"
       y="27"
       id="use41"
       width="100%"
       height="100%" />
  </g>
  <path
     style="fill:none;stroke:#b8b8b8;stroke-width:28;stroke-linecap:round;stroke-linejoin:round;stroke-miterlimit:10;stroke-opacity:1"
     d="M 100,60 40,50 m 60,10 60,-10 m -60,10 v 80"
     id="path45" />
  <path
     style="fill:#ffffff;fill-opacity:0.533333;fill-rule:nonzero;stroke:none"
     d="m 173,55 c 0,15.464844 -12.53516,28 -28,28 -15.46484,0 -28,-12.535156 -28,-28 0,-15.464844 12.53516,-28 28,-28 15.46484,0 28,12.535156 28,28"
     id="path47" />
  <path
     style="fill:none;stroke:#37a8db;stroke-width:3;stroke-linecap:butt;stroke-linejoin:miter;stroke-miterlimit:10;stroke-opacity:1"
     d="m 173,55 c 0,15.464844 -12.53516,28 -28,28 -15.46484,0 -28,-12.535156 -28,-28 0,-15.464844 12.53516,-28 28,-28 15.46484,0 28,12.535156 28,28 M 125.19922,35.199219 127.21484,52 m -2.01562,-16.800781 h -16.80078"
     id="path49" />
  <g
     style="fill:#000000;fill-opacity:1"
     id="g53">
    <use
       xlink:href="#glyph0-4"
       x="138"
       y="74"
       id="use51"
       width="100%"
       height="100%" />
  </g>
  <path
     style="fill:#ffffff;fill-opacity:0.533333;fill-rule:nonzero;stroke:none"
     d="M 83,55 C 83,70.464844 70.464844,83 55,83 39.535156,83 27,70.464844 27,55 27,39.535156 39.535156,27 55,27 70.464844,27 83,39.535156 83,55"
     id="path55" />
  <path
     style="fill:none;stroke:#37a8db;stroke-width:3;stroke-linecap:butt;stroke-linejoin:miter;stroke-miterlimit:10;stroke-opacity:1"
     d="M 83,55 C 83,70.464844 70.464844,83 55,83 39.535156,83 27,70.464844 27,55 27,39.535156 39.535156,27 55,27 70.464844,27 83,39.535156 83,55 M 74.800781,35.199219 V 18.398438 m 0,16.800781 L 58,37.214844"
     id="path57" />
  <g
     style="fill:#000000;fill-opacity:1"
     id="g61">
    <use
       xlink:href="#glyph0-5"
       x="48"
       y="74"
       id="use59"
       width="100%"
       height="100%" />
  </g>
  <path
     style="fill:#ffffff;fill-opacity:0.533333;fill-rule:nonzero;stroke:none"
     d="m 128,140 c 0,15.46484 -12.53516,28 -28,28 -15.464844,0 -28,-12.53516 -28,-28 0,-15.46484 12.535156,-28 28,-28 15.46484,0 28,12.53516 28,28"
     id="path63" />
  <path
     style="fill:none;stroke:#37a8db;stroke-width:3;stroke-linecap:butt;stroke-linejoin:miter;stroke-miterlimit:10;stroke-opacity:1"
     d="m 128,140 c 0,15.46484 -12.53516,28 -28,28 -15.464844,0 -28,-12.53516 -28,-28 0,-15.46484 12.535156,-28 28,-28 15.46484,0 28,12.53516 28,28 M 80.199219,120.19922 v -16.80078 m 0,16.80078 L 97,122.21484"
     id="path65" />
  <g
     style="fill:#000000;fill-opacity:1"
     id="g69">
    <use
       xlink:href="#glyph0-6"
       x="93"
       y="137"
       id="use67"
       width="100%"
       height="100%" />
  </g>
  <path
     style="fill:none;stroke:#fa0500;stroke-width:12;stroke-linecap:butt;stroke-linejoin:bevel;stroke-miterlimit:10;stroke-opacity:1"
     d="m 100,60 v 40"
     id="path71" />
  <path
     style="fill:#fa0500;fill-opacity:1;fill-rule:nonzero;stroke:none"
     d="M 100,55 85,70 h 30 L 100,55"
     id="path73" />
</svg>

<?xml version="1.0" encoding="UTF-8"?>
<!-- Public domain (CC-BY-SA if you or your laws insist), generated by Jonathan Hudson's svg_model_motors.rb -->
<svg xmlns="http://www.w3.org/2000/svg" xmlns:xlink="http://www.w3.org/1999/xlink" width="200pt" height="200pt" viewBox="0 0 200 200" version="1.1">
<defs>
<g>
<symbol overflow="visible" id="glyph0-0">
<path style="stroke:none;" d=""/>
</symbol>
<symbol overflow="visible" id="glyph0-1">
<path style="stroke:none;" d="M 9.257812 -6.929688 L 9.257812 -15.804688 L 2.980469 -6.929688 Z M 9.296875 0 L 9.296875 -4.785156 L 0.710938 -4.785156 L 0.710938 -7.191406 L 9.679688 -19.632812 L 11.757812 -19.632812 L 11.757812 -6.929688 L 14.640625 -6.929688 L 14.640625 -4.785156 L 11.757812 -4.785156 L 11.757812 0 Z M 9.296875 0 "/>
</symbol>
<symbol overflow="visible" id="glyph0-2">
<path style="stroke:none;" d="M 12.761719 -17.957031 C 13.625 -16.824219 14.054688 -15.65625 14.054688 -14.453125 L 11.621094 -14.453125 C 11.476562 -15.226562 11.242188 -15.832031 10.921875 -16.269531 C 10.332031 -17.089844 9.433594 -17.5 8.230469 -17.5 C 6.855469 -17.5 5.761719 -16.863281 4.949219 -15.59375 C 4.136719 -14.320312 3.6875 -12.5 3.59375 -10.132812 C 4.160156 -10.960938 4.871094 -11.578125 5.726562 -11.992188 C 6.511719 -12.355469 7.386719 -12.539062 8.351562 -12.539062 C 9.992188 -12.539062 11.425781 -12.011719 12.648438 -10.964844 C 13.867188 -9.917969 14.476562 -8.351562 14.476562 -6.273438 C 14.476562 -4.496094 13.898438 -2.921875 12.742188 -1.550781 C 11.585938 -0.179688 9.933594 0.507812 7.792969 0.507812 C 5.960938 0.507812 4.378906 -0.1875 3.046875 -1.578125 C 1.71875 -2.96875 1.054688 -5.308594 1.054688 -8.601562 C 1.054688 -11.035156 1.347656 -13.097656 1.941406 -14.792969 C 3.082031 -18.039062 5.164062 -19.660156 8.1875 -19.660156 C 10.375 -19.660156 11.902344 -19.09375 12.761719 -17.957031 Z M 10.917969 -2.988281 C 11.558594 -3.859375 11.882812 -4.886719 11.882812 -6.070312 C 11.882812 -7.074219 11.59375 -8.027344 11.019531 -8.933594 C 10.445312 -9.839844 9.402344 -10.296875 7.890625 -10.296875 C 6.832031 -10.296875 5.902344 -9.945312 5.105469 -9.242188 C 4.308594 -8.539062 3.910156 -7.484375 3.910156 -6.070312 C 3.910156 -4.832031 4.273438 -3.789062 4.996094 -2.945312 C 5.722656 -2.101562 6.726562 -1.679688 8.011719 -1.679688 C 9.304688 -1.679688 10.273438 -2.117188 10.917969 -2.988281 Z M 10.917969 -2.988281 "/>
</symbol>
<symbol overflow="visible" id="glyph0-3">
<path style="stroke:none;" d="M 3.460938 -4.992188 C 3.625 -3.585938 4.273438 -2.617188 5.414062 -2.078125 C 5.996094 -1.804688 6.671875 -1.667969 7.4375 -1.667969 C 8.894531 -1.667969 9.976562 -2.132812 10.679688 -3.0625 C 11.378906 -3.992188 11.730469 -5.023438 11.730469 -6.152344 C 11.730469 -7.519531 11.3125 -8.578125 10.480469 -9.324219 C 9.644531 -10.070312 8.644531 -10.445312 7.476562 -10.445312 C 6.628906 -10.445312 5.902344 -10.28125 5.296875 -9.953125 C 4.691406 -9.625 4.175781 -9.167969 3.746094 -8.585938 L 1.613281 -8.710938 L 3.101562 -19.25 L 13.273438 -19.25 L 13.273438 -16.871094 L 4.949219 -16.871094 L 4.117188 -11.429688 C 4.570312 -11.777344 5.003906 -12.035156 5.414062 -12.210938 C 6.144531 -12.511719 6.984375 -12.660156 7.945312 -12.660156 C 9.738281 -12.660156 11.261719 -12.082031 12.507812 -10.921875 C 13.757812 -9.765625 14.382812 -8.296875 14.382812 -6.523438 C 14.382812 -4.671875 13.8125 -3.039062 12.667969 -1.625 C 11.523438 -0.214844 9.699219 0.492188 7.191406 0.492188 C 5.597656 0.492188 4.1875 0.0429688 2.960938 -0.855469 C 1.734375 -1.753906 1.046875 -3.132812 0.902344 -4.992188 Z M 3.460938 -4.992188 "/>
</symbol>
<symbol overflow="visible" id="glyph0-4">
<path style="stroke:none;" d="M 1.921875 -4.402344 C 2.527344 -5.652344 3.710938 -6.785156 5.46875 -7.804688 L 8.09375 -9.324219 C 9.269531 -10.007812 10.09375 -10.589844 10.570312 -11.074219 C 11.316406 -11.832031 11.6875 -12.695312 11.6875 -13.671875 C 11.6875 -14.8125 11.347656 -15.714844 10.664062 -16.386719 C 9.980469 -17.054688 9.070312 -17.390625 7.929688 -17.390625 C 6.242188 -17.390625 5.078125 -16.753906 4.429688 -15.476562 C 4.082031 -14.792969 3.890625 -13.84375 3.855469 -12.632812 L 1.351562 -12.632812 C 1.378906 -14.335938 1.695312 -15.726562 2.296875 -16.804688 C 3.363281 -18.699219 5.246094 -19.648438 7.945312 -19.648438 C 10.1875 -19.648438 11.824219 -19.039062 12.859375 -17.828125 C 13.894531 -16.617188 14.410156 -15.265625 14.410156 -13.78125 C 14.410156 -12.214844 13.859375 -10.875 12.757812 -9.761719 C 12.117188 -9.113281 10.972656 -8.332031 9.324219 -7.410156 L 7.453125 -6.371094 C 6.558594 -5.878906 5.855469 -5.410156 5.34375 -4.960938 C 4.433594 -4.167969 3.859375 -3.289062 3.625 -2.324219 L 14.3125 -2.324219 L 14.3125 0 L 0.875 0 C 0.964844 -1.6875 1.316406 -3.152344 1.921875 -4.402344 Z M 1.921875 -4.402344 "/>
</symbol>
<symbol overflow="visible" id="glyph0-5">
<path style="stroke:none;" d="M 2.234375 -1.375 C 1.191406 -2.644531 0.671875 -4.191406 0.671875 -6.015625 L 3.242188 -6.015625 C 3.351562 -4.75 3.585938 -3.828125 3.953125 -3.253906 C 4.589844 -2.222656 5.742188 -1.710938 7.410156 -1.710938 C 8.703125 -1.710938 9.742188 -2.054688 10.527344 -2.75 C 11.3125 -3.441406 11.703125 -4.335938 11.703125 -5.429688 C 11.703125 -6.777344 11.289062 -7.71875 10.464844 -8.257812 C 9.640625 -8.796875 8.496094 -9.0625 7.027344 -9.0625 C 6.863281 -9.0625 6.695312 -9.0625 6.527344 -9.058594 C 6.359375 -9.054688 6.1875 -9.046875 6.015625 -9.039062 L 6.015625 -11.210938 C 6.269531 -11.183594 6.484375 -11.164062 6.65625 -11.15625 C 6.832031 -11.148438 7.019531 -11.140625 7.21875 -11.140625 C 8.140625 -11.140625 8.894531 -11.289062 9.488281 -11.578125 C 10.527344 -12.089844 11.046875 -13 11.046875 -14.3125 C 11.046875 -15.289062 10.699219 -16.042969 10.007812 -16.570312 C 9.316406 -17.097656 8.507812 -17.363281 7.585938 -17.363281 C 5.945312 -17.363281 4.8125 -16.816406 4.183594 -15.722656 C 3.835938 -15.121094 3.640625 -14.265625 3.59375 -13.152344 L 1.164062 -13.152344 C 1.164062 -14.609375 1.453125 -15.851562 2.039062 -16.871094 C 3.039062 -18.695312 4.804688 -19.605469 7.328125 -19.605469 C 9.324219 -19.605469 10.867188 -19.160156 11.960938 -18.273438 C 13.054688 -17.382812 13.601562 -16.097656 13.601562 -14.410156 C 13.601562 -13.207031 13.28125 -12.230469 12.632812 -11.484375 C 12.230469 -11.019531 11.710938 -10.65625 11.074219 -10.390625 C 12.105469 -10.109375 12.910156 -9.5625 13.488281 -8.757812 C 14.066406 -7.949219 14.355469 -6.964844 14.355469 -5.796875 C 14.355469 -3.929688 13.742188 -2.40625 12.507812 -1.230469 C 11.277344 -0.0546875 9.535156 0.53125 7.273438 0.53125 C 4.957031 0.53125 3.277344 -0.101562 2.234375 -1.375 Z M 2.234375 -1.375 "/>
</symbol>
<symbol overflow="visible" id="glyph0-6">
<path style="stroke:none;" d="M 2.679688 -13.863281 L 2.679688 -15.75 C 4.457031 -15.921875 5.695312 -16.210938 6.398438 -16.617188 C 7.101562 -17.023438 7.625 -17.984375 7.96875 -19.496094 L 9.914062 -19.496094 L 9.914062 0 L 7.289062 0 L 7.289062 -13.863281 Z M 2.679688 -13.863281 "/>
</symbol>
</g>
</defs>
<g id="surface56">
<path style="fill:none;stroke-width:3;stroke-linecap:butt;stroke-linejoin:miter;stroke:rgb(0%,39.215686%,0%);stroke-opacity:1;stroke-miterlimit:10;" d="M 128 170 C 128 185.464844 115.464844 198 100 198 C 84.535156 198 72 185.464844 72 170 C 72 154.535156 84.535156 142 100 142 C 115.464844 142 128 154.535156 128 170 M 80.199219 189.800781 L 80.199219 206.601562 M 80.199219 189.800781 L 97 187.785156 "/>
<g style="fill:rgb(0%,0%,0%);fill-opacity:1;">
  <use xlink:href="#glyph0-1" x="93" y="191"/>
</g>
<path style="fill:none;stroke-width:3;stroke-linecap:butt;stroke-linejoin:miter;stroke:rgb(0%,39.215686%,0%);stroke-opacity:1;stroke-miterlimit:10;" d="M 58 30 C 58 45.464844 45.464844 58 30 58 C 14.535156 58 2 45.464844 2 30 C 2 14.535156 14.535156 2 30 2 C 45.464844 2 58 14.535156 58 30 M 49.800781 10.199219 L 47.785156 27 M 49.800781 10.199219 L 66.601562 10.199219 "/>
<g style="fill:rgb(0%,0%,0%);fill-opacity:1;">
  <use xlink:href="#glyph0-2" x="23" y="27"/>
</g>
<path style="fill:none;stroke-width:3;stroke-linecap:butt;stroke-linejoin:miter;stroke:rgb(0%,39.215686%,0%);stroke-opacity:1;stroke-miterlimit:10;" d="M 198 30 C 198 45.464844 185.464844 58 170 58 C 154.535156 58 142 45.464844 142 30 C 142 14.535156 154.535156 2 170 2 C 185.464844 2 198 14.535156 198 30 M 150.199219 10.199219 L 150.199219 -6.601562 M 150.199219 10.199219 L 167 12.214844 "/>
<g style="fill:rgb(0%,0%,0%);fill-opacity:1;">
  <use xlink:href="#glyph0-3" x="163" y="27"/>
</g>
<path style="fill:none;stroke-width:28;stroke-linecap:round;stroke-linejoin:round;stroke:rgb(72.941176%,72.941176%,72.941176%);stroke-opacity:1;stroke-miterlimit:10;" d="M 100 60 L 40 50 M 100 60 L 160 50 M 100 60 L 100 140 "/>
<path style=" stroke:none;fill-rule:nonzero;fill:rgb(100%,100%,100%);fill-opacity:0.533333;" d="M 173 55 C 173 70.464844 160.464844 83 145 83 C 129.535156 83 117 70.464844 117 55 C 117 39.535156 129.535156 27 145 27 C 160.464844 27 173 39.535156 173 55 "/>
<path style="fill:none;stroke-width:3;stroke-linecap:butt;stroke-linejoin:miter;stroke:rgb(32.941176%,67.843137%,11.372549%);stroke-opacity:1;stroke-miterlimit:10;" d="M 173 55 C 173 70.464844 160.464844 83 145 83 C 129.535156 83 117 70.464844 117 55 C 117 39.535156 129.535156 27 145 27 C 160.464844 27 173 39.535156 173 55 M 125.199219 35.199219 L 127.214844 52 M 125.199219 35.199219 L 108.398438 35.199219 "/>
<g style="fill:rgb(0%,0%,0%);fill-opacity:1;">
  <use xlink:href="#glyph0-4" x="138" y="74"/>
</g>
<path style=" stroke:none;fill-rule:nonzero;fill:rgb(100%,100%,100%);fill-opacity:0.533333;" d="M 83 55 C 83 70.464844 70.464844 83 55 83 C 39.535156 83 27 70.464844 27 55 C 27 39.535156 39.535156 27 55 27 C 70.464844 27 83 39.535156 83 55 "/>
<path style="fill:none;stroke-width:3;stroke-linecap:butt;stroke-linejoin:miter;stroke:rgb(32.941176%,67.843137%,11.372549%);stroke-opacity:1;stroke-miterlimit:10;" d="M 83 55 C 83 70.464844 70.464844 83 55 83 C 39.535156 83 27 70.464844 27 55 C 27 39.535156 39.535156 27 55 27 C 70.464844 27 83 39.535156 83 55 M 74.800781 35.199219 L 74.800781 18.398438 M 74.800781 35.199219 L 58 37.214844 "/>
<g style="fill:rgb(0%,0%,0%);fill-opacity:1;">
  <use xlink:href="#glyph0-5" x="48" y="74"/>
</g>
<path style=" stroke:none;fill-rule:nonzero;fill:rgb(100%,100%,100%);fill-opacity:0.533333;" d="M 128 140 C 128 155.464844 115.464844 168 100 168 C 84.535156 168 72 155.464844 72 140 C 72 124.535156 84.535156 112 100 112 C 115.464844 112 128 124.535156 128 140 "/>
<path style="fill:none;stroke-width:3;stroke-linecap:butt;stroke-linejoin:miter;stroke:rgb(32.941176%,67.843137%,11.372549%);stroke-opacity:1;stroke-miterlimit:10;" d="M 128 140 C 128 155.464844 115.464844 168 100 168 C 84.535156 168 72 155.464844 72 140 C 72 124.535156 84.535156 112 100 112 C 115.464844 112 128 124.535156 128 140 M 80.199219 120.199219 L 80.199219 103.398438 M 80.199219 120.199219 L 97 122.214844 "/>
<g style="fill:rgb(0%,0%,0%);fill-opacity:1;">
  <use xlink:href="#glyph0-6" x="93" y="137"/>
</g>
<path style="fill:none;stroke-width:12;stroke-linecap:butt;stroke-linejoin:bevel;stroke:rgb(98.039216%,2.745098%,0%);stroke-opacity:1;stroke-miterlimit:10;" d="M 100 60 L 100 100 "/>
<path style=" stroke:none;fill-rule:nonzero;fill:rgb(98.039216%,2.745098%,0%);fill-opacity:1;" d="M 100 55 L 85 70 L 115 70 L 100 55 "/>
</g>
</svg>
